symbols/web/view_stream/materialsymbolsrounded/view_stream_gradN25_40px.svg

<svg xmlns="http://www.w3.org/2000/svg" height="40" width="40"><path d="M32.208 28.875v-7.583H7.792v7.583h24.416Zm0-10.208v-7.542H7.792v7.542h24.416ZM7.792 31.542q-1.084 0-1.875-.792-.792-.792-.792-1.875v-17.75q0-1.083.792-1.875.791-.792 1.875-.792h24.416q1.084 0 1.875.792.792.792.792 1.875v17.75q0 1.083-.792 1.875-.791.792-1.875.792Z"/></svg>

<svg xmlns="http://www.w3.org/2000/svg" height="40" width="40"><path d="M32.208 28.875V21.292Q32.208 21.292 32.208 21.292Q32.208 21.292 32.208 21.292H7.792Q7.792 21.292 7.792 21.292Q7.792 21.292 7.792 21.292V28.875Q7.792 28.875 7.792 28.875Q7.792 28.875 7.792 28.875H32.208Q32.208 28.875 32.208 28.875Q32.208 28.875 32.208 28.875ZM32.208 18.667V11.125Q32.208 11.125 32.208 11.125Q32.208 11.125 32.208 11.125H7.792Q7.792 11.125 7.792 11.125Q7.792 11.125 7.792 11.125V18.667Q7.792 18.667 7.792 18.667Q7.792 18.667 7.792 18.667H32.208Q32.208 18.667 32.208 18.667Q32.208 18.667 32.208 18.667ZM7.792 31.542Q6.708 31.542 5.917 30.75Q5.125 29.958 5.125 28.875V11.125Q5.125 10.042 5.917 9.25Q6.708 8.458 7.792 8.458H32.208Q33.292 8.458 34.083 9.25Q34.875 10.042 34.875 11.125V28.875Q34.875 29.958 34.083 30.75Q33.292 31.542 32.208 31.542Z"/></svg>
